static/images/accordion-icon.svg

<svg height="100" viewBox="0 0 100 100" width="100" xmlns="http://www.w3.org/2000/svg"><path d="m50 0c4.418278 0 8 3.581722 8 8v34h34c4.418278 0 8 3.581722 8 8s-3.581722 8-8 8h-34v34c0 4.418278-3.581722 8-8 8s-8-3.581722-8-8v-34h-34c-4.418278 0-8-3.581722-8-8s3.581722-8 8-8h34v-34c0-4.418278 3.581722-8 8-8z" fill="#afafaf"/></svg>

<?xml version="1.0" encoding="UTF-8"?>
<svg width="100px" height="100px" viewBox="0 0 100 100" version="1.1" xmlns="http://www.w3.org/2000/svg" xmlns:xlink="http://www.w3.org/1999/xlink">
    <!-- Generator: Sketch 63.1 (92452) - https://sketch.com -->
    <title>accordion-icon</title>
    <desc>Created with Sketch.</desc>
    <g id="Page-1" stroke="none" stroke-width="1" fill="none" fill-rule="evenodd">
        <g id="accordion-icon" fill="#AFAFAF" fill-rule="nonzero">
            <path d="M50,0 C54.418278,0 58,3.581722 58,8 L58,42 L92,42 C96.418278,42 100,45.581722 100,50 C100,54.418278 96.418278,58 92,58 L58,58 L58,92 C58,96.418278 54.418278,100 50,100 C45.581722,100 42,96.418278 42,92 L42,58 L8,58 C3.581722,58 0,54.418278 0,50 C0,45.581722 3.581722,42 8,42 L42,42 L42,8 C42,3.581722 45.581722,0 50,0 Z" id="Combined-Shape"></path>
        </g>
    </g>
</svg>
